!!!COM: Mozart, Wolfgang Amadeus
!!!OTL: Musikalische Würfelspiele, Kontre-Tänze
!!!SCA: K<sup>6</sup> Anh. C30.01 (K<sup>3</sup> Anh. 294d)
**kern	**kern
*staff2	*staff2
*clefF4	*clefG2
*M2/4	*M2/4
*MM110	*MM110
*>[A,A1,A,A2,B]	*>[A,A1,A,A2,B]
*>norep[A,A2,B]	*>norep[A,A2,B]
*>A	*>A
=36	=36
4C	8cc
.	16c
.	16e
4C	8g
.	16cc
.	16ee
=81	=81
4C	8cc
.	8g
4r	8cc
.	8ee
=57	=57
8G	8ff
16GG	8ff
16AA	.
16BB	8dd
16C	.
16D	8dd
16BB	.
=139	=139
16C	8cc
16G	.
16E	8ee
16G	.
16C	4g
16G	.
16E	.
16G	.
=21	=21
4D	8d
.	16f#
.	16a
4C 4D	16dd
.	16ff#
.	16aa
.	16ff#
=125	=125
4G	16bb
.	16ddd
.	16ccc
.	16bb
4BB	16aa
.	16gg
.	16ff#
.	16gg
=73	=73
4C	8ee
.	8gg
4D	8ff#
.	8aa
=130	=130
*>A1	*>A1
4GG	4g 4b 4gg
16G	4r
16F	.
16E	.
16D	.
=130:|!	=130:|!
*>A2	*>A2
4GG	4g 4b 4gg
16GG	4r
16AA	.
16BB	.
16C#	.
=116||	=116||
*>B	*>B
8D	8dd
16C#	4ff#
16D	.
16Cn	.
16D	.
16C	8aa
16D	.
=157	=157
4G	16gg
.	16aa
.	16bb
.	16ccc
4GG	4ddd
=29	=29
4C	16ee
.	16cc
.	16g
.	16cc
4C	16ee
.	16cc
.	16gg
.	16ee
=107	=107
16BB	8dd
16D	.
16G	4b
16D	.
16G	.
16F	.
16E	8g
16D	.
=134	=134
4C	16cc
.	16ee
.	16gg
.	16ee
4r	16cc
.	16g
.	16cc
.	16ee
=103	=103
4C	16gg
.	16ccc
.	16gg
.	16ff
4r	16ee
.	16cc
.	16ee
.	16gg
=109	=109
16GG	8dd
16D	.
16BB	4ff
16D	.
16GG	.
16D	.
16BB	8b
16D	.
=146	=146
4C	4cc
4CC	4c
==	==
*-	*-
